X:357
T:El Ringo-Rango
R:Fandangu
C:Tradicional
S:Msica Tradicional Asturiana, (C) Tello & Tito. Asturies, 2001.
S:http://pagina.de/MusTradAst <telloytito@asturies.org>
A:Asturies
Z:Les cuarenta principales
M:3/4
L:1/4
Q:3/4=80
K:C
|: C2 E|GGG|A2 A|G3|A2 G|FGA|G2 F|E3 :|
|DEF|G3|GAG|FED|C3|EDC|B,2 D|FED|C3|EDC|B,2 D|FEF|GED|C3-|C3|
